!!!SOCIAL_FUNCTION:	songs used in treatment of the sick
!!!PDT:	1918

Specific Region: Dakotas, Minnesota, Montana, Nebraska
!!!REG: Dakotas and Montana
!!!LING_GROUP: Siouan
!!!LANG: Tone
!!!OTL@ENG: Song of Healing
!!!ONM: No. 90
**kern
*Imale
*clefF4
*k[b-]
*M2/4
*MM66
16d
8.d
8d
8d
=1||
*M3/4
(4.d
8A)
4A
=2||
*M2/4
16A
8.A
8A
8A
=3||
*M3/4
(4.A
8G)
4F
=4||
*M2/4
16F
8.F
8A
8A
=5||
*M3/4
(4.A
8G)
8F
16G
16G
=6
8.G
16G
8G
16G
16G
8G
8F
=7||
*M2/4
8G
8F
16F
8.D
=8||
*M3/4
(2F
4D)
=9||
*M2/4
16F
8.F
8F
(16G
16F)
=10
2D
=11
2D
=12
16D
8.D
8A
8A
=13||
*M3/4
(4.A
8G)
4F
=14||
*M2/4
16F
8.F
8A
8A
=15||
*M3/4
(4.A
8G)
8F
16G
16G
=16
8.G
16G
8G
16G
16G
8G
8F
=17||
*M2/4
8G
8F
16F
8.D
=18||
*M3/4
(2F
4D)
=19||
*M2/4
16F
8.F
8F
(16G
16F)
=20
2D
=21
2D
==
*-
!!!CNT: Native American -- Sioux
!!!MRD: 1911/07//-1914///
!!!OCL: Frances Densmore
!!!YOR1: Teton Sioux Music, Bulletin 61,
!!!YOR2: Bureau of American Ethnology, Smithsonian Institution
!!!PPR: Government Printing Office
!!!PPP: Washington, D.C.
!!!PDT: 1918///
!!!ENC: Craig Stuart Sapp
!!!END: 2002/03/25/
!!!EEV: 2002/03/31/
!!!AGN: Song of Personal Dreams/Song Used in Treatment of the Sick
!!!MPN@@SIO: Mato'nape'ska
!!!MPN@ENG: Bear-with-White-Paw
!!!TXO: Teton Sioux
!!!MLC: Standing Rock Reservation, South Dakota, United States of America
!!!ARL: 45.9/-100.7#
!!!catalog: Catalogue No. 674
!!!PPG: 268
!!!EFL: 90/245
!!!VTS: 2281786150
